X:118
T:Tom and Jerry
R:Other
O:England
M:2/4
L:1/8
B:"The Fiddler of Helperby", Dragonfly Music, ISBN 1-872277-18-7, 1994.
A:Yorkshire
H:Dance Music, 1820-1850
K:D
A|\
"D"d>eff|"D"ge f2|"A"(fe)(ed)|"A"fe e(d/e/)|\
"D"d>eff|"D"gef>e|"Bm"dBB"A"A|"G"dBB:|
|:A|\
"G"Bd"D"Ad|"A"(A/G/F/E/) "D"F2|\
"A"(FE)E(D/E/)|"A"FEEA|\
"G"Bd"D"Ad|"A"(A/G/F/E/) "D"F>E|"Bm"DBB"A"c|"G"dBB:|
